X:256
T: Es ist dunkel auf hohen Bergen (3-58), S. 168
N: P1031
O: Lothringen
S: PINCK, Louis: Verklingende Weisen, Bd3, Metz 1933]
N: Melodie der Strophen 1-7
R: verlorene Liebe]
M: 4/4
L: 1/8
K: F
C2 | F3GABcd | c3BA2
cf | d3ccBA2 | G4
c4 | GBAGF2E2 | FGAFc2
cd | cBAGA2G2 | F6

@@@ Tune index: 7806
